X:1
T:Title
%%score { ( 1 3 ) | ( 2 4 ) }
L:1/8
Q:1/4=100
M:4/4
K:Eb
V:1 treble nm="Grand Piano"
V:3 treble 
V:2 bass 
V:4 bass 
V:1
 G3 G AG_G=G | [_Gc]4 [=GB]2 E2 | A4 [DA]4 | G6 z2 | G3 G AG_G=G | [_Gc]4 [=GB]2 G2 | z4 F4 | %7
w: Adam~Geibel * * * * *|||||||
 [DF]6 z2 | [DF]3 [EG] [FA][=EG][FA][DAc] | [Ac]4 [GB]4 | B4 c2 e2 | d4- [Ad]4 | %12
w: |||||
 [Ge]3 [Ge] [Gd][Ge]B=B | d2 c2 B2 A2 | [EG]4 [CDA]2 [B,DG]2 | [G,B,E]6 z2 | [DB]4 [EB]2 [FB]2 | %17
w: |||||
 [EB]4 [F=B]4 | [Ec]4 [Fc]2 [Gc]2 | [Fc]4 [Ad]4 | [Ge]3 [Ge] [Gd][Ge]B=B | d2 c2 B2 A2 | %22
w: |||||
 [EG]4 [CDA]2 [B,DG]2 | [G,B,E]6 z2 |] %24
w: ||
V:2
 [E,B,E]3 [E,B,E] [E,CE][E,B,E][E,=A,E][E,B,E] | [E,=A,]4 [E,B,]2 [G,B,]2 | [F,CE]4 [B,,B,]4 | %3
 [E,B,E]6 z2 | [E,B,E]3 [E,B,E] [E,CE][E,B,E][E,=A,E][E,B,E] | [E,=A,]4 [E,B,]2 [E,B,E]2 | %6
 [F,B,D]4 C2 z2 | [B,,B,]6 z2 | [B,,B,]3 [B,,B,] [B,,B,][B,,B,][B,,B,]B,, | [E,E]4 [E,E]4 | %10
 [F,DF]4 [F,=A,F]2 [F,A,F]2 | [B,,B,]8 | [E,B,]3 [E,B,] [E,B,][E,B,][E,G,E][E,G,E] | %13
 [A,E]4 [F,CF]4 | B,4 B,,2 B,,2 | E,6 z2 | [B,,F,]4 [B,,G,]2 [B,,A,]2 | G,8 | %18
 [C,G,]4 [C,A,]2 [C,B,]2 | [F,A,]4 [B,,B,]4 | [E,B,]3 [E,B,] [E,B,][E,B,][E,G,E][E,G,E] | %21
 [A,E]4 [F,CF]4 | B,4 B,,2 B,,2 | E,6 z2 |] %24
V:3
 x8 | x8 | x8 | x8 | x8 | x8 | F4 z2 E2 | x8 | x8 | x8 | x8 | F4 z4 | x8 | x8 | x8 | x8 | x8 | x8 | %18
 x8 | x8 | x8 | x8 | x8 | x8 |] %24
V:4
 x8 | x8 | x8 | x8 | x8 | x8 | z4 [F,=A,]4 | x8 | x8 | x8 | x8 | x8 | x8 | x8 | x8 | x8 | x8 | %17
 E,4 _D,4 | x8 | x8 | x8 | x8 | x8 | x8 |] %24

